X:1
T:What Will It Matter?
T:What Will It Matter?
T:Daniel G. Norris, 1877
T:Margaret Junkin Preston, 1875
T:Public Domain Courtesy of the Cyber Hymnal™
C:Daniel G. Norris, 1877
Z:Public Domain
Z:Courtesy of the Cyber Hymnal™
%%score ( 1 2 ) 3
L:1/8
Q:1/4=90
M:6/8
K:Eb
V:1 treble 
V:2 treble 
V:3 bass 
V:1
 [EB]>[EG][EG] [EG] [EB]2 | (BA)[DF] E3 | E>[EF][EG] (BA)[EG] | ([EG]>[DF])[CE] [DF]3 | %4
w: 1.~What will it mat- ter,|by * and by,|Whe- ther my path * be-|low * was bright,|
w: 2.~What will it mat- ter,|by * and by,|Whe- ther, un- helped, * I|toiled * a- lone,|
w: 3.~What will it mat- ter?|Naught, * if I|On- ly am sure * the|way * I’e trod,|
w: 4.~What will it mat- ter?|What * the sigh,|If, in my fear * of|slip * or fall,|
 [DF]>[EG][FA] ([FA][EG])[DF] | E2 [Ec] [EB]3 | [EB]>[EG][GB] [Ge]2 [GB] | [GB]2 [B_d] [Ac]3 | %8
w: Whe- ther it wound * thro’|dark or light|Un- der a gray or|gold- en sky,|
w: Dash- ing my foot * a-|gainst a stone,|Miss- ing, per- haps, the|an- gel nigh,|
w: Gloom- y or glad- * dened,|leads to God;|Quest- ion- ing not of|how, or why,|
w: Close- ly I’ve clung * to|Christ thro’ all,|Mind- less how rough the|path might lie,|
 [Ac]>[Ac][Ac] [GB][EG]E | [EG]2 [DF] E3 |] %10
w: When I look back on it|by and by?|
w: Bid- ding me think of the|by and by?|
w: If I but gaze on Him|by and by.|
w: Since He will com- fort me|by and by?|
V:2
 x6 | D2 E3 x | E3/2 F2 x5/2 | x6 | x6 | E2 x4 | x6 | x6 | x5 E | x3 E3 |] %10
V:3
 [E,G,]>[E,B,][E,B,] [E,B,] [E,G,]2 | [B,,F,]2 [B,,A,] [E,G,]3 | %2
 [E,G,]>[E,A,][E,B,] [D,B,]2 [E,B,] | [C,C]2 [C,G,] [B,,B,]3 | %4
 [B,,B,]>[B,,B,][B,,B,] [B,,B,]2 [B,,B,] | [C,G,]2 [A,,A,] [E,G,]3 | %6
 [E,G,]>[E,B,][E,E] [E,B,]2 [E,E] | [E,E]2 [G,E] [A,E]3 | %8
 [A,,E]>[A,,E][A,,E] [B,,E][B,,B,][B,,G,] | [B,,B,]2 [B,,A,] [E,G,]3 |] %10

